X: 1
T: the Wild One
C: by Mer Pantaleoni Boel
%D:1986
R: jig
S: Fiddle Hell Online 2022-3-26 handout for Fiddle Hell jam session
B: the Portland Collection 2 p.224
Z: 2022 John Chambers <jc:trillian.mit.edu>
M: 6/8
L: 1/8
K: Dm
|: "Dm"DEF DGD | "F"ADc AGF | "Bb"DEF    DGD | "Am"ADF     E3  |
|  "Dm"DEF DGD | "F"ADc AGF | "Bb"dcA "C"GAF | "Am"EDC "Dm"D3 :|
|: "Dm"d2c A2c |    dcA cdc |     d2c    A2G | "Am"FGE     FED |
|  "Dm"d2c A2c |    dcA cdc |     d2c "C"GAF | "Am"EDC "Dm"D3 :|
